rospo-light/32x32/apps/doublecmd.svg

<?xml version="1.0" encoding="UTF-8" standalone="no"?>
<svg xmlns="http://www.w3.org/2000/svg" height="32" width="32" version="1">
 <rect ry="1.4" rx="1.4" transform="matrix(0,-1,-1,0,0,0)" height="28" width="28" y="-30" x="-30" fill="#d95951"/>
 <path opacity=".2" d="m4 7v4h4.8968c0.4522 0 1.1032 0.548 1.1032 1v10c0 0.45225-0.65176 1.0263-1.1032 1h-4.8968v4h8.5714c0.792 0 1.429-0.637 1.429-1.429v-17.142c0-0.7919-0.637-1.429-1.429-1.429z"/>
 <path fill="#fff" d="m4 6v4h4.8968c0.4522 0 1.1032 0.548 1.1032 1v10c0 0.45225-0.65176 1.0263-1.1032 1h-4.8968v4h8.5714c0.792 0 1.429-0.637 1.429-1.429v-17.142c0-0.7919-0.637-1.429-1.429-1.429z"/>
 <path opacity=".2" d="m28 7v4h-4.8968c-0.452 0-1.103 0.548-1.103 1v10c0 0.45225 0.65176 1.0263 1.1032 1h4.897v4h-8.5714c-0.792 0-1.429-0.637-1.429-1.429v-17.142c0-0.7919 0.637-1.429 1.429-1.429z"/>
 <path fill="#fff" d="m28 6v4h-4.8968c-0.452 0-1.103 0.548-1.103 1v10c0 0.45225 0.65176 1.0263 1.1032 1h4.897v4h-8.5714c-0.792 0-1.429-0.637-1.429-1.429v-17.142c0-0.7919 0.637-1.429 1.429-1.429z"/>
 <path opacity=".2" fill="#fff" d="m3.4004 2c-0.7756 0-1.4004 0.6248-1.4004 1.4004v1c0-0.7756 0.6248-1.4004 1.4004-1.4004h25.2c0.775 0 1.4 0.6248 1.4 1.4004v-1c0-0.7756-0.625-1.4004-1.4-1.4004h-25.2z"/>
 <path opacity=".2" d="m2 28.6v1c0 0.775 0.6248 1.4 1.4004 1.4h25.2c0.775 0 1.4-0.625 1.4-1.4v-1c0 0.775-0.625 1.4-1.4 1.4h-25.2c-0.7752 0-1.4-0.625-1.4-1.4z"/>
</svg>

<?xml version="1.0" encoding="UTF-8" standalone="no"?>
<svg
   xmlns:dc="http://purl.org/dc/elements/1.1/"
   xmlns:cc="http://creativecommons.org/ns#"
   xmlns:rdf="http://www.w3.org/1999/02/22-rdf-syntax-ns#"
   xmlns:svg="http://www.w3.org/2000/svg"
   xmlns="http://www.w3.org/2000/svg"
   xmlns:sodipodi="http://sodipodi.sourceforge.net/DTD/sodipodi-0.dtd"
   xmlns:inkscape="http://www.inkscape.org/namespaces/inkscape"
   height="32"
   width="32"
   version="1"
   id="svg16"
   sodipodi:docname="doublecmd.svg"
   inkscape:version="0.92.1 r">
  <metadata
     id="metadata22">
    <rdf:RDF>
      <cc:Work
         rdf:about="">
        <dc:format>image/svg+xml</dc:format>
        <dc:type
           rdf:resource="http://purl.org/dc/dcmitype/StillImage" />
      </cc:Work>
    </rdf:RDF>
  </metadata>
  <defs
     id="defs20" />
  <sodipodi:namedview
     pagecolor="#ffffff"
     bordercolor="#666666"
     borderopacity="1"
     objecttolerance="10"
     gridtolerance="10"
     guidetolerance="10"
     inkscape:pageopacity="0"
     inkscape:pageshadow="2"
     inkscape:window-width="640"
     inkscape:window-height="480"
     id="namedview18"
     showgrid="false"
     inkscape:zoom="8.9375"
     inkscape:cx="-5.2587413"
     inkscape:cy="16"
     inkscape:current-layer="svg16" />
  <rect
     style="opacity:1;fill:#d95951;fill-opacity:1;fill-rule:evenodd;stroke:none;stroke-width:1.03534329;stroke-linecap:round;stroke-linejoin:bevel;stroke-miterlimit:4;stroke-dasharray:none;stroke-dashoffset:0;stroke-opacity:1"
     id="rect4497-3-3"
     width="28.203388"
     height="28.203388"
     x="1.8983059"
     y="1.8983059"
     ry="5.575182" />
  <g
     id="g4507"
     transform="matrix(0.82284678,0,0,0.82284678,2.834287,2.8344515)"
     style="stroke-width:1.21529305">
    <path
       id="path6"
       d="m 4,6 v 4 H 8.8968 C 9.349,10 10,10.548 10,11 v 10 c 0,0.45225 -0.65176,1.0263 -1.1032,1 H 4 v 4 h 8.5714 c 0.792,0 1.429,-0.637 1.429,-1.429 V 7.429 C 14.0004,6.6371 13.3634,6 12.5714,6 Z"
       inkscape:connector-curvature="0"
       style="fill:#ffffff;stroke-width:1.21529305" />
    <path
       id="path10"
       d="m 28,6 v 4 h -4.8968 c -0.452,0 -1.103,0.548 -1.103,1 v 10 c 0,0.45225 0.65176,1.0263 1.1032,1 h 4.897 v 4 H 19.429 C 18.637,26 18,25.363 18,24.571 V 7.429 C 18,6.6371 18.637,6 19.429,6 Z"
       inkscape:connector-curvature="0"
       style="fill:#ffffff;stroke-width:1.21529305" />
  </g>
</svg>
